icon-themes/sifr_svg/cmd/sc_alignup.svg

<svg viewBox="0 0 16 16" xmlns="http://www.w3.org/2000/svg"><path d="m7 14v-10h2v10zm-5-3v-7h2v7zm10-1v-6h2v6zm-10-7v-2h12v2z" fill="#555753"/></svg>

<svg xmlns="http://www.w3.org/2000/svg" viewBox="0 0 16 16">
  <path
     style="fill:#555753"
     d="M 7,14 V 4 H 9 V 14 Z M 2,11 V 4 h 2 v 7 z M 12,10 V 4 h 2 v 6 z M 2,3 V 1 h 12 v 2 z"
     />
</svg>
